dist/img/icons/pdf.svg

<svg width="34" height="34" viewBox="0 0 34 34" fill="none" xmlns="http://www.w3.org/2000/svg">
<g clip-path="url(#clip0_188_3415)">
<path fill-rule="evenodd" clip-rule="evenodd" d="M8.7124 0H20.0797L29.7139 10.042V29.5737C29.7139 32.0205 27.7344 34 25.2961 34H8.7124C6.26564 34 4.28613 32.0205 4.28613 29.5737V4.42627C4.28609 1.9795 6.26559 0 8.7124 0V0Z" fill="#EA5D0E"/>
<path opacity="0.302" fill-rule="evenodd" clip-rule="evenodd" d="M20.071 0V9.96553H29.7137L20.071 0Z" fill="white"/>
<path d="M9.20508 25.3684V19.158H11.8473C12.5014 19.158 13.0197 19.3364 13.4105 19.7017C13.8013 20.0585 13.9967 20.5428 13.9967 21.146C13.9967 21.7492 13.8013 22.2334 13.4105 22.5902C13.0197 22.9556 12.5014 23.134 11.8473 23.134H10.7938V25.3684H9.20508ZM10.7938 21.7832H11.6689C11.9067 21.7832 12.0936 21.7322 12.2211 21.6133C12.3485 21.5028 12.4165 21.3499 12.4165 21.146C12.4165 20.9421 12.3486 20.7892 12.2211 20.6787C12.0937 20.5598 11.9068 20.5088 11.6689 20.5088H10.7938V21.7832ZM14.6509 25.3684V19.158H16.8513C17.2845 19.158 17.6923 19.2174 18.0746 19.3449C18.4569 19.4723 18.8053 19.6507 19.1111 19.8971C19.417 20.135 19.6633 20.4578 19.8418 20.8656C20.0117 21.2734 20.1051 21.7407 20.1051 22.2674C20.1051 22.7857 20.0117 23.2529 19.8418 23.6607C19.6633 24.0685 19.417 24.3913 19.1111 24.6292C18.8052 24.8756 18.4569 25.054 18.0746 25.1814C17.6923 25.3089 17.2845 25.3684 16.8513 25.3684H14.6509ZM16.2056 24.0176H16.6643C16.9107 24.0176 17.1401 23.9921 17.3525 23.9326C17.5564 23.8731 17.7518 23.7796 17.9387 23.6522C18.1171 23.5248 18.2615 23.3464 18.3635 23.1085C18.4654 22.8706 18.5164 22.5902 18.5164 22.2674C18.5164 21.9361 18.4654 21.6557 18.3635 21.4179C18.2615 21.18 18.1171 21.0016 17.9387 20.8741C17.7518 20.7467 17.5564 20.6532 17.3525 20.5938C17.1401 20.5343 16.9107 20.5088 16.6643 20.5088H16.2056V24.0176ZM20.9037 25.3684V19.158H25.3215V20.5088H22.4924V21.5028H24.7523V22.8451H22.4924V25.3684H20.9037Z" fill="white"/>
</g>
<defs>
<clipPath id="clip0_188_3415">
<rect width="34" height="34" fill="white"/>
</clipPath>
</defs>
</svg>

<svg width="34" height="34" fill="none" xmlns="http://www.w3.org/2000/svg"><g clip-path="url(#clip0_188_3415)"><path fill-rule="evenodd" clip-rule="evenodd" d="M8.712 0H20.08l9.634 10.042v19.532A4.422 4.422 0 0125.296 34H8.712a4.423 4.423 0 01-4.426-4.426V4.426A4.423 4.423 0 018.712 0z" fill="#EA5D0E"/><path opacity=".302" fill-rule="evenodd" clip-rule="evenodd" d="M20.071 0v9.966h9.643L20.07 0z" fill="#fff"/><path d="M9.205 25.368v-6.21h2.642c.654 0 1.173.178 1.564.544.39.356.586.84.586 1.444 0 .603-.196 1.087-.586 1.444-.391.366-.91.544-1.564.544h-1.053v2.234H9.205zm1.589-3.585h.875c.238 0 .425-.05.552-.17a.584.584 0 00.195-.467.584.584 0 00-.195-.467c-.127-.12-.314-.17-.552-.17h-.875v1.274zm3.857 3.585v-6.21h2.2c.434 0 .841.06 1.224.187.382.127.73.306 1.036.552.306.238.552.56.73.969.17.407.264.875.264 1.401 0 .519-.093.986-.263 1.394a2.44 2.44 0 01-.73.968 3.288 3.288 0 01-1.037.552c-.383.128-.79.187-1.224.187h-2.2zm1.555-1.35h.458c.247 0 .476-.026.688-.085.204-.06.4-.153.587-.28a1.26 1.26 0 00.424-.544c.102-.238.153-.519.153-.842 0-.33-.05-.611-.152-.85a1.26 1.26 0 00-.425-.543 2.061 2.061 0 00-.587-.28 2.545 2.545 0 00-.688-.085h-.458v3.509zm4.698 1.35v-6.21h4.418v1.35h-2.83v.995h2.26v1.342h-2.26v2.523h-1.588z" fill="#fff"/></g><defs><clipPath id="clip0_188_3415"><path fill="#fff" d="M0 0h34v34H0z"/></clipPath></defs></svg>
